X:1
T:Hold out my heart - Morley
T:#
%%score { 1 | 2 } 3
L:1/8
Q:1/4=120
M:4/4
K:C
V:1 treble nm="Soprano I" snm="S"
V:2 treble 
V:3 treble-8 nm="Tenor" snm="T"
V:1
"^Hold out my heart" z8 | d4 d2 d2 | G4 z2 (c2- | c2 BA B4) | %4
w: |Hold out my|heart, my||
 c2 G2"^Thomas Morley\n(1557-1603)" c4 |[M:4/4] B2 g2 g2 g2 | c4 z2 f2 | e2 c3 def | g2 g2 d3 e | %9
w: heart, my heart|hold, hold out my|heart, hold|with joy's de- lights ac-|cloy- ed, joy's de-|
 f2 F3 GAB | c2 c2 z2 g2 | f2 d3 e f2 | e4 d4- | d2 c2 c4- | (c2 BA B4) | c4 c4 | B4 A4 | G6 A2 | %18
w: lights, joy's de- lights ac-|cloy- ed, O|hold, hold thou out|my heart|* and show||it, That|all the|world, the|
 G2 c2 (c2 B2) | c4 z2 c2 | g4 f4 |[M:3/4] e4 d2 | e4 d2 |[M:3/4] c4 B4 |[M:3/4] c2 A3 B | c4 B2 | %26
w: world may know *|it, that|all the|world, the|world may|know it,|that all the|world, the|
[M:3/4] c4 c4 | B4 A2 x2 | G2- x6 |[M:4/4] (G2 ^FE F4) | G4 z4 | z2 d2 e2 ^f2 | g4 z2 G2 | %33
w: world may|know, may|know||it,|What sweet con-|tent, what|
 c2 A2 G2 G2 | A4 G2 G2- | G2 ^F (E F4) | G4 G4 |[M:4/4] A4 G2 F4 | E2 (D4 EF G4 | %39
w: sweet con- tent thou|late- ly hast|* en- joy\- *|ed, thou|late- ly hast|en- joy\- * * *|
[M:3/2] ^F2) G8 x2 |[M:4/4] x8 |[M:4/4] z4 g4 | g2 f2 e2 d2 | c4 c4 | c2 B2 A2 G2 | F2 G2 A2 ^F2 | %46
w: * ed;||She|that, "Come dear", would|say, Then|laugh and run a-|way, And if I|
 G2 G2 G4- | G2 ^FE F4 | G4 z2 d2 | B>c d2 G4 | z2 g2 e>f g2 | c2 c2 B2 c2 | A4 G2 F2- | %53
w: stay'd her, thus|* would she then|cry, "Nay,|fie, for shame, fie,|nay, fie, for shame,|fie", My true love|true not re\-|
 F2 (E4 ^F2) | G8 | z4 g4 | f4 e4 | d4 c4 |[M:4/4] B4 e2 z2 |[M:3/4] d4 c2- x2 | %60
w: * gard\- *|ing;|Hath|giv'n my|love at|length his|full re\-|
[M:3/4] c2 B2 c4 x4 |[M:3/4] B2 A3 G x6 |[M:3/4] (G4 ^F2) x2 |[M:4/4] G8 | z4 g2 gf | %65
w: * ward- ing,|his full re-|ward\- *|ing.|So that, un-|
[M:4/4] e2 ed c4 | c2 cB A4 | GABc d2 DE | ^FD (G4 F2) | G8 | z4 g2 gf | e2 ed c4 | c2 cB A2 AG | %73
w: less I may tell,|So that, un- less|I may tell the joys that do|o- ver- fill *|me,|so that, un-|less I may tell,|so that, un- less I may|
 F2 CD EFGA | Bc d4 d2 | c2 Bc (d2 A2) | B4 e4 | f6 e2 | d2 d2 c2[Q:1/4=118] c2 | %79
w: tell, I may tell the joys that|o- ver- fill me,|that o- ver- fill *|me, My|joys kept|in, I know in|
[Q:1/4=116] B2[Q:1/4=114] B2[Q:1/4=111] (c4- | %80
w: time will kill|
[Q:1/4=108] c2[Q:1/4=107] B[Q:1/4=106]A[Q:1/4=103] B4) |[Q:1/4=102] c8 |] %82
w: |me.|
V:2
 z8 | z8 | g4 g2 g2 | d6 f2 | e2 c3 d e2 |[M:4/4] d2 B4 G2 | A8 | G4 z2 c2 | B2 G3 ABc | d8 | %10
w: ||Hold out my|heart, O|hold, hold thou out|my heart, my|heart,|hold, hold|with joy's de- lights ac-|cloy-|
 G4 c4 | c2 (BA B4) | c2 c2 f4- | f2 e2 e2 (dc) | d8 | e8 | z8 | z4 c4 | g4 f4 | e2 c3 d e2- | %20
w: ed, hold|out my * *|heart, hold out|* my heart and *|show|it,||That|all the|world, all the world|
 ed (c4 B2) |[M:3/4] c4 B2 | A3 G (G2- |[M:3/4] G2 ^F2) G4 |[M:3/4] e2 c3 d | e2 f4 | %26
w: * may know *|it, the|world may know|* * it,|that all the|world, my|
[M:3/4] e4 e4 | d4 d4 | x8 |[M:4/4] c8 | B2 d2 e2 ^f2 | g2 G2 c2 A2 | G4 z2 d2 | e2 ^f2 g2 e2 | %34
w: heart, may|know, may||know|it, What sweet con-|tent, what sweet con-|tent, what|sweet con- tent thou|
 =f4 e4 | d6 c2 | B4 e4 |[M:4/4] f4 e2 x4 | d4 c2 x6 |[M:3/2] B4 c4 A4 |[M:4/4] B4 d4 | %41
w: late- ly|hast en-|joy'd, thou|late- ly|hast en-|joy'd, en- joy-|ed; She|
[M:4/4] d2 c2 B2 A2 | G4 g4 | g2 f2 e2 d2 | c4 f4 | f2 e2 d2 c2 | B2 c2 d2 d2 | c4 c4 | %48
w: that, "Come dear", would|say, "Come,|come, my dear", would|say, Then|laugh and run a-|way, And if I|stay'd her,|
 B2 d2 B>c d2 | G4 z2 g2 | e>f g2 c4 | z2 e2 d2 e2 | (f4 e2) d2- | d2 (G2 c4) | B4 z2 e2- | %55
w: cry, "Nay fie for shame,|fie, nay|fie for shame, fie",|My true love|not * re\-|* gard\- *|ing; Hath|
 e2 d4 c2- | c2 B2 c2 g2 | f4 e4 |[M:4/4] d4 c2 z2 |[M:3/4] f4 e2 x2 |[M:3/4] d4 e4 x4 | %61
w: * giv'n my|* love now at|length his|long love's|full re-|ward- ing,|
[M:3/4] d2 e4 d2 c4 |[M:3/4] B8 |[M:4/4] g2 gf e2 ed | x8 |[M:4/4] c4 c2 cB | A2 AG F2 CD | %67
w: Love's full re- ward-|ing.|So that, un- less I may||tell, So that, un-|less I may tell, I may|
 EFGA Bc d2- | d2 d2 (c2 A2) | B4 d2 dc | B2 BA G4 | g2 gf e2 ed | c4 c2 cB | A4 GABc | %74
w: tell the joys, the joys that o\-|* ver- fill *|me, so that, un-|less I may tell,|so that un- less I may|tell, so that, un-|less I may tell the|
 d2 G2 ^F2 G2 | EF (G4 ^F2) | G4 G4 | A6 G2 | =F2 F2 E2 E2 | D4 E4 | D8 | E8 |] %82
w: joys, the joys that|o- ver- fill *|me, My|joys kept|in, I know in|time will|kill|me.|
V:3
 g4 g2 g2 | d4 z2 f2 | e2 c3 def | g8 | z2 c2 c2 c2 |[M:4/4][K:treble-8] G6 _B2 | A2 F3 GAB | c8 | %8
w: Hold out my|heart, hold|out, hold thou out my|heart,|hold out my|heart, hold|with joy's de- lights ac-|cloy-|
 G4 z2 g2 | f2 d3 e f2 | e2 c3 (d e2) | d4 d4 | c4 B4 | c8 | G8 | c4 c4 | g4 f4 | e6 f2 | (e4 d4) | %19
w: ed, hold,|O hold thou out|my heart, my *|heart, and|show it,|and|show|it, That|all the|world may|know *|
 c6 c2 | e4 d4 |[M:3/4][K:treble-8] c4 G2 | c4 B2 |[M:4/4] A4 G4 |[M:3/4] c2 f4 | e2 d4 | %26
w: it, that|all the|world, the|world may|know it,|the world|may know|
[M:4/4] c4 c4 | G4 B4 |[M:4/4][K:treble-8] A8 | G2 G2 c2 A2 | G4 z4 | z2 G2 A2 B2 | c2 d2 G2 c2 | %33
w: it, the|world may|know|it, What sweet con-|tent,|what sweet con-|tent thou late- ly|
 F4 c4 | d8 | G4 c4 |[M:3/4] F4 G2 x2 | _B4 c2 x4 |[M:3/2] G4 c4 d4 |[M:4/4] G8 x4 | %40
w: hast en-|joy-|ed, what|sweet con-|tent thou|hast en- joy-|ed;|
[M:4/4][K:treble-8] g4 g2 f2 | e2 d2 c4 | c4 c2 B2 | A2 G2 F2 E2 | D8 | G4 B2 B2 | A4 A4 | G8 | %48
w: She that, "Come|dear", would say,|Then laugh and|smile and run a-|way,|and if I|stayed her,|cry,|
 z2 g2 e>f g2 | c4 z2 c2 | A>B c2 G2 c2 | FGAB c2 d2 | B2 c2 A4 | G4 g4 | f4 e4 | d4 c2 G2 | %56
w: "Nay, fie, for shame,|fie, nay,|fie, for shame, fie", My|true love not re- gard- ing,|not re- gard-|ing; Hath|giv'n my|love now at|
 _B4 c4 |[M:3/4] G4 c2 x2 |[M:3/4][K:treble-8] d2 B2 c2 |[M:4/4] G4 c4 |[M:3/2] G2 c4 B2 A4 | %61
w: length his|full re-|ward- ing, re-|ward- ing,|his full re- ward-|
[M:4/4] G4 g2 gf x4 | e2 ed c4 |[M:4/4][K:treble-8] c2 cB A2 AG | F4 FGAB | c4 GABc | %66
w: ing. So that, un-|less I may tell,|So that, un- less I may|tell, I may tell the|joys, I may tell the|
 d2 B2 (c2 d2) | G8 | g2 gf e2 ed | c4 c2 cB | A2 AG F4 | FGAB c4 | GABc d2 B2 | c2 e2 d4 | G4 c4 | %75
w: joys that fill *|me,|so that, un- less I may|tell, so that, un-|less I may tell,|I may tell the joys,|I may tell the joys that|o- ver- fill|me, My|
 F6 G2 | _B2 B2 c2 c2 | G8- | G8 | c8 | x8 | x8 |] %82
w: joys kept|in, I know will|kill||me.|||

